;FLAVOR:Marlin
;TIME:2344
;Filament used: 1.05217m
;Layer height: 0.1
;MINX:81.562
;MINY:86.906
;MINZ:0.2
;MAXX:192.074
;MAXY:184.041
;MAXZ:15
;Generated with Cura_SteamEngine 4.2.1
M140 S60
M105
M190 S60
M104 S200
M105
M109 S200
M82 ;absolute extrusion mode
; -- START GCODE --
G21                     ;set units to millimetres
G90                     ;set to absolute positioning
M106 S0                 ;set fan speed to zero (turned off)
G28                     ;home all axis
G92 E0                  ;zero the extruded length
G1 Z1 F1000             ;move up slightly
G1 Y60.0 Z0 E9.0 F1000.0;intro line
G1 Y100.0 E21.5 F1000.0 ;continue line
G92 E0                  ;zero the extruded length again
; -- end of START GCODE --
M141 S28
G92 E0
G92 E0
G1 F2700 E-5
;LAYER_COUNT:99
;LAYER:0
M107
G0 F3600 X165.236 Y168.067 Z0.2
;TYPE:SKIRT
G1 F2700 E0
G1 F1200 X165.815 Y167.545 E0.05186
G1 X166.444 Y167.085 E0.10369
G1 X167.117 Y166.691 E0.15557
G1 X167.827 Y166.369 E0.20743
G1 X168.566 Y166.121 E0.25928
G1 X169.326 Y165.95 E0.3111
G1 X170.1 Y165.858 E0.36295
G1 X170.606 Y165.841 E0.39663
G1 X174.085 Y165.839 E0.62805
G1 X174.234 Y165.272 E0.66705
G1 X174.508 Y164.543 E0.71886
G1 X174.855 Y163.845 E0.77071
G1 X175.272 Y163.186 E0.82258
G1 X175.755 Y162.574 E0.87445
G1 X176.103 Y162.201 E0.90838
G1 X176.337 Y161.967 E0.93039
G1 X176.916 Y161.445 E0.98225
G1 X177.545 Y160.985 E1.03409
G1 X178.218 Y160.591 E1.08596
G1 X178.928 Y160.269 E1.13782
G1 X179.667 Y160.021 E1.18967
G1 X180.427 Y159.85 E1.24149
G1 X181.201 Y159.758 E1.29334
G1 X181.708 Y159.741 E1.32709
G1 X184.24 Y159.74 E1.49552
G1 X185.018 Y159.78 E1.54734
G1 X185.789 Y159.899 E1.59923
G1 X186.543 Y160.096 E1.65107
G1 X187.273 Y160.37 E1.70294
G1 X187.971 Y160.717 E1.75479
G1 X188.629 Y161.134 E1.80661
G1 X189.242 Y161.616 E1.85848
G1 X189.802 Y162.158 E1.91033
G1 X190.304 Y162.754 E1.96216
G1 X190.742 Y163.399 E2.01402
G1 X191.111 Y164.086 E2.0659
G1 X191.408 Y164.806 E2.11771
G1 X191.63 Y165.554 E2.16961
G1 X191.774 Y166.32 E2.22146
G1 X191.84 Y167.131 E2.27558
G1 X192.074 Y175.647 E2.84228
G1 X192.056 Y176.427 E2.89418
G1 X191.957 Y177.2 E2.94602
G1 X191.78 Y177.959 E2.99787
G1 X191.49 Y178.786 E3.05616
G1 X191.429 Y178.932 E3.06669
G1 X191.092 Y179.635 E3.11855
G1 X190.684 Y180.299 E3.17039
G1 X190.211 Y180.919 E3.22226
G1 X189.79 Y181.376 E3.2636
G1 X189.412 Y181.754 E3.29916
G1 X188.833 Y182.276 E3.35101
G1 X188.204 Y182.736 E3.40285
G1 X187.531 Y183.13 E3.45473
G1 X186.968 Y183.393 E3.49606
G1 X186.822 Y183.454 E3.50659
G1 X186.088 Y183.717 E3.55845
G1 X185.331 Y183.903 E3.61031
G1 X184.559 Y184.012 E3.66217
G1 X183.892 Y184.041 E3.70658
G1 X170.611 Y184.041 E4.59004
G1 X169.833 Y184.001 E4.64186
G1 X169.062 Y183.882 E4.69375
G1 X168.308 Y183.684 E4.74561
G1 X167.579 Y183.41 E4.79741
G1 X166.881 Y183.063 E4.84927
G1 X166.222 Y182.646 E4.90114
G1 X165.61 Y182.163 E4.953
G1 X165.237 Y181.815 E4.98694
G1 X165.003 Y181.581 E5.00895
G1 X164.481 Y181.002 E5.06081
G1 X164.021 Y180.373 E5.11265
G1 X163.627 Y179.7 E5.16452
G1 X163.305 Y178.99 E5.21638
G1 X163.057 Y178.251 E5.26823
G1 X162.886 Y177.491 E5.32005
G1 X162.794 Y176.717 E5.3719
G1 X162.777 Y176.21 E5.40565
G1 X162.776 Y173.678 E5.57408
G1 X162.816 Y172.9 E5.6259
G1 X162.935 Y172.129 E5.67779
G1 X163.132 Y171.375 E5.72963
G1 X163.406 Y170.645 E5.7815
G1 X163.753 Y169.947 E5.83335
G1 X164.17 Y169.289 E5.88517
G1 X164.652 Y168.676 E5.93704
G1 X165.002 Y168.301 E5.97117
G1 X165.236 Y168.067 E5.99318
G0 F3600 X165.802 Y168.633
G1 F1200 X166.351 Y168.14 E6.04226
G1 X166.949 Y167.71 E6.09126
G1 X167.591 Y167.348 E6.14029
G1 X168.269 Y167.057 E6.18936
G1 X168.974 Y166.841 E6.23841
G1 X169.698 Y166.702 E6.28745
G1 X170.607 Y166.641 E6.34806
G1 X174.75 Y166.639 E6.62365
G1 X174.836 Y166.111 E6.65924
G1 X175.034 Y165.401 E6.70827
G1 X175.307 Y164.716 E6.75732
G1 X175.653 Y164.065 E6.80636
G1 X176.067 Y163.455 E6.8554
G1 X176.669 Y162.767 E6.91621
G1 X176.903 Y162.533 E6.93823
G1 X177.452 Y162.04 E6.98731
G1 X178.05 Y161.61 E7.0363
G1 X178.692 Y161.248 E7.08533
G1 X179.37 Y160.957 E7.13441
G1 X180.075 Y160.741 E7.18346
G1 X180.799 Y160.602 E7.2325
G1 X181.708 Y160.541 E7.2931
G1 X184.24 Y160.54 E7.46153
G1 X184.977 Y160.58 E7.51063
G1 X185.704 Y160.699 E7.55963
G1 X186.415 Y160.896 E7.60871
G1 X187.099 Y161.169 E7.6577
G1 X187.751 Y161.515 E7.7068
G1 X188.361 Y161.929 E7.75584
G1 X188.923 Y162.406 E7.80488
G1 X189.429 Y162.942 E7.85391
G1 X189.875 Y163.529 E7.90295
G1 X190.254 Y164.161 E7.95197
G1 X190.563 Y164.831 E8.00105
G1 X190.798 Y165.53 E8.0501
G1 X190.955 Y166.25 E8.09912
G1 X191.04 Y167.153 E8.15946
G1 X191.274 Y175.669 E8.72616
G1 X191.255 Y176.406 E8.7752
G1 X191.155 Y177.137 E8.82428
G1 X190.977 Y177.852 E8.87329
G1 X190.751 Y178.477 E8.9175
G1 X190.69 Y178.623 E8.92803
G1 X190.37 Y179.287 E8.97706
G1 X189.979 Y179.913 E9.02616
G1 X189.523 Y180.492 E9.07518
G1 X189.224 Y180.81 E9.10422
G1 X188.846 Y181.188 E9.13978
G1 X188.297 Y181.681 E9.18886
G1 X187.699 Y182.111 E9.23786
G1 X187.057 Y182.473 E9.28688
G1 X186.659 Y182.654 E9.31597
G1 X186.513 Y182.715 E9.32649
G1 X185.819 Y182.962 E9.3755
G1 X185.101 Y183.133 E9.42459
G1 X184.37 Y183.224 E9.47359
G1 X183.892 Y183.241 E9.50541
G1 X170.611 Y183.241 E10.38887
G1 X169.875 Y183.201 E10.4379
G1 X169.147 Y183.082 E10.48697
G1 X168.437 Y182.884 E10.536
G1 X167.752 Y182.611 E10.58505
G1 X167.101 Y182.265 E10.63409
G1 X166.491 Y181.851 E10.68313
G1 X165.803 Y181.249 E10.74394
G1 X165.569 Y181.015 E10.76596
G1 X165.076 Y180.466 E10.81504
G1 X164.646 Y179.868 E10.86404
G1 X164.284 Y179.226 E10.91306
G1 X163.993 Y178.548 E10.96214
G1 X163.777 Y177.843 E11.01119
G1 X163.638 Y177.119 E11.06023
G1 X163.577 Y176.21 E11.12083
G1 X163.576 Y173.678 E11.28926
G1 X163.616 Y172.941 E11.33836
G1 X163.735 Y172.214 E11.38737
G1 X163.932 Y171.503 E11.43644
G1 X164.205 Y170.819 E11.48543
G1 X164.551 Y170.167 E11.53453
G1 X164.965 Y169.557 E11.58357
G1 X165.568 Y168.867 E11.64453
G1 X165.802 Y168.633 E11.66654
G0 F3600 X166.367 Y169.198
G1 F1200 X166.884 Y168.738 E11.71258
G1 X167.451 Y168.34 E11.75866
G1 X168.06 Y168.01 E11.80473
G1 X168.703 Y167.752 E11.85082
G1 X169.371 Y167.57 E11.89688
G1 X170.056 Y167.467 E11.94295
G1 X170.607 Y167.441 E11.97965
G1 X175.485 Y167.439 E12.30413
G1 X175.517 Y166.884 E12.34111
G1 X175.636 Y166.201 E12.38723
G1 X175.834 Y165.538 E12.43326
G1 X176.106 Y164.901 E12.47933
G1 X176.45 Y164.3 E12.5254
G1 X176.861 Y163.742 E12.5715
G1 X177.234 Y163.332 E12.60837
G1 X177.468 Y163.098 E12.63038
G1 X177.985 Y162.638 E12.67642
G1 X178.552 Y162.24 E12.7225
G1 X179.161 Y161.91 E12.76857
G1 X179.804 Y161.652 E12.81466
G1 X180.472 Y161.47 E12.86072
G1 X181.157 Y161.367 E12.9068
G1 X181.709 Y161.341 E12.94355
G1 X184.241 Y161.34 E13.11198
G1 X184.932 Y161.38 E13.15803
G1 X185.614 Y161.499 E13.20408
G1 X186.278 Y161.696 E13.25015
G1 X186.915 Y161.968 E13.29623
G1 X187.516 Y162.311 E13.34226
G1 X188.074 Y162.722 E13.38836
G1 X188.58 Y163.194 E13.43439
G1 X189.029 Y163.722 E13.48049
G1 X189.414 Y164.297 E13.52652
G1 X189.73 Y164.914 E13.57264
G1 X189.974 Y165.562 E13.6187
G1 X190.14 Y166.234 E13.66474
G1 X190.241 Y167.175 E13.7277
G1 X190.475 Y175.691 E14.2944
G1 X190.454 Y176.383 E14.34045
G1 X190.353 Y177.069 E14.38658
G1 X190.174 Y177.738 E14.43264
G1 X190.013 Y178.169 E14.46325
G1 X189.952 Y178.315 E14.47377
G1 X189.649 Y178.938 E14.51986
G1 X189.276 Y179.521 E14.5659
G1 X188.659 Y180.245 E14.62917
G1 X188.281 Y180.623 E14.66473
G1 X187.764 Y181.083 E14.71077
G1 X187.197 Y181.481 E14.75685
G1 X186.351 Y181.916 E14.82013
G1 X186.205 Y181.977 E14.83065
G1 X185.552 Y182.207 E14.87671
G1 X184.876 Y182.36 E14.92281
G1 X183.892 Y182.441 E14.98849
G1 X170.611 Y182.441 E15.87195
G1 X169.92 Y182.401 E15.91799
G1 X169.237 Y182.282 E15.96411
G1 X168.574 Y182.084 E16.01013
G1 X167.937 Y181.812 E16.05621
G1 X167.336 Y181.468 E16.10227
G1 X166.778 Y181.057 E16.14837
G1 X166.368 Y180.684 E16.18524
G1 X166.134 Y180.45 E16.20726
G1 X165.674 Y179.933 E16.25329
G1 X165.276 Y179.366 E16.29937
G1 X164.946 Y178.757 E16.34545
G1 X164.688 Y178.114 E16.39153
G1 X164.506 Y177.446 E16.43759
G1 X164.403 Y176.761 E16.48367
G1 X164.377 Y176.209 E16.52043
G1 X164.376 Y173.677 E16.68886
G1 X164.416 Y172.986 E16.7349
G1 X164.535 Y172.304 E16.78095
G1 X164.732 Y171.64 E16.82703
G1 X165.004 Y171.003 E16.8731
G1 X165.347 Y170.402 E16.91913
G1 X165.758 Y169.844 E16.96523
G1 X166.133 Y169.432 E17.00229
G1 X166.367 Y169.198 E17.0243
G0 F3600 X166.933 Y169.764
G1 F1200 X167.416 Y169.337 E17.06719
G1 X167.949 Y168.974 E17.11009
G1 X168.522 Y168.679 E17.15296
G1 X169.127 Y168.457 E17.19582
G1 X169.755 Y168.312 E17.2387
G1 X170.607 Y168.241 E17.29557
G1 X176.277 Y168.238 E17.67274
G1 X176.277 Y167.575 E17.71684
G1 X176.317 Y166.932 E17.7597
G1 X176.436 Y166.298 E17.80261
G1 X176.633 Y165.684 E17.8455
G1 X176.904 Y165.099 E17.88839
G1 X177.246 Y164.552 E17.9313
G1 X177.8 Y163.898 E17.98832
G1 X178.034 Y163.664 E18.01033
G1 X178.517 Y163.237 E18.05322
G1 X179.05 Y162.874 E18.09611
G1 X179.623 Y162.579 E18.13898
G1 X180.228 Y162.357 E18.18185
G1 X180.856 Y162.212 E18.22473
G1 X181.709 Y162.141 E18.28166
G1 X184.241 Y162.14 E18.45009
G1 X184.884 Y162.18 E18.49295
G1 X185.518 Y162.299 E18.53586
G1 X186.132 Y162.495 E18.57873
G1 X186.717 Y162.766 E18.62162
G1 X187.264 Y163.107 E18.6645
G1 X187.764 Y163.514 E18.70738
G1 X188.211 Y163.979 E18.75029
G1 X188.596 Y164.496 E18.79317
G1 X188.915 Y165.056 E18.83604
G1 X189.161 Y165.652 E18.87893
G1 X189.332 Y166.273 E18.92178
G1 X189.441 Y167.197 E18.98367
G1 X189.675 Y175.713 E19.55037
G1 X189.653 Y176.357 E19.59323
G1 X189.551 Y176.994 E19.63615
G1 X189.275 Y177.861 E19.69667
G1 X189.214 Y178.007 E19.7072
G1 X188.929 Y178.585 E19.75007
G1 X188.575 Y179.124 E19.79296
G1 X188.093 Y179.679 E19.84186
G1 X187.715 Y180.057 E19.87742
G1 X187.232 Y180.484 E19.9203
G1 X186.699 Y180.847 E19.9632
G1 X186.043 Y181.178 E20.01208
G1 X185.897 Y181.239 E20.0226
G1 X185.288 Y181.45 E20.06548
G1 X184.657 Y181.584 E20.10839
G1 X183.892 Y181.641 E20.15942
G1 X170.611 Y181.641 E21.04287
G1 X169.968 Y181.601 E21.08573
G1 X169.334 Y181.482 E21.12864
G1 X168.72 Y181.285 E21.17153
G1 X168.135 Y181.014 E21.21442
G1 X167.588 Y180.672 E21.25733
G1 X166.934 Y180.118 E21.31435
G1 X166.7 Y179.884 E21.33636
G1 X166.273 Y179.401 E21.37925
G1 X165.91 Y178.868 E21.42214
G1 X165.615 Y178.295 E21.46501
G1 X165.393 Y177.69 E21.50788
G1 X165.248 Y177.062 E21.55076
G1 X165.177 Y176.209 E21.60769
G1 X165.176 Y173.677 E21.77612
G1 X165.216 Y173.034 E21.81898
G1 X165.335 Y172.4 E21.86189
G1 X165.531 Y171.786 E21.90476
G1 X165.802 Y171.201 E21.94765
G1 X166.143 Y170.654 E21.99053
G1 X166.699 Y169.998 E22.04773
G1 X166.933 Y169.764 E22.06974
G0 F3600 X167.499 Y170.33
G1 F1200 X167.945 Y169.94 E22.10915
G1 X168.44 Y169.613 E22.14862
G1 X168.975 Y169.356 E22.1881
G1 X169.539 Y169.173 E22.22754
G1 X170.122 Y169.068 E22.26695
G1 X170.608 Y169.041 E22.29933
G1 X177.077 Y169.038 E22.72965
G1 X177.077 Y167.575 E22.82697
G1 X177.117 Y166.983 E22.86644
G1 X177.236 Y166.403 E22.90582
G1 X177.432 Y165.843 E22.94529
G1 X177.702 Y165.315 E22.98474
G1 X178.04 Y164.828 E23.02417
G1 X178.366 Y164.464 E23.05667
G1 X178.6 Y164.23 E23.07869
G1 X179.046 Y163.84 E23.1181
G1 X179.541 Y163.513 E23.15756
G1 X180.076 Y163.256 E23.19704
G1 X180.64 Y163.073 E23.23649
G1 X181.223 Y162.968 E23.27589
G1 X181.709 Y162.941 E23.30827
G1 X184.241 Y162.94 E23.4767
G1 X184.833 Y162.98 E23.51617
G1 X185.414 Y163.099 E23.55562
G1 X185.973 Y163.295 E23.59502
G1 X186.502 Y163.564 E23.6345
G1 X186.989 Y163.902 E23.67394
G1 X187.426 Y164.302 E23.71334
G1 X187.806 Y164.758 E23.75283
G1 X188.121 Y165.26 E23.79225
G1 X188.365 Y165.801 E23.83173
G1 X188.534 Y166.369 E23.87115
G1 X188.641 Y167.219 E23.92814
G1 X188.875 Y175.735 E24.49484
G1 X188.852 Y176.328 E24.53432
G1 X188.749 Y176.912 E24.57376
G1 X188.537 Y177.552 E24.61861
G1 X188.476 Y177.698 E24.62914
G1 X188.211 Y178.229 E24.66861
G1 X187.877 Y178.719 E24.70806
G1 X187.527 Y179.113 E24.74312
G1 X187.149 Y179.491 E24.77868
G1 X186.703 Y179.881 E24.81809
G1 X186.208 Y180.208 E24.85755
G1 X185.734 Y180.44 E24.89266
G1 X185.588 Y180.501 E24.90318
G1 X185.027 Y180.692 E24.9426
G1 X184.445 Y180.806 E24.98205
G1 X183.892 Y180.841 E25.01891
G1 X170.611 Y180.841 E25.90237
G1 X170.019 Y180.801 E25.94184
G1 X169.439 Y180.682 E25.98122
G1 X168.879 Y180.486 E26.02069
G1 X168.351 Y180.216 E26.06014
G1 X167.864 Y179.878 E26.09957
G1 X167.5 Y179.552 E26.13208
G1 X167.266 Y179.318 E26.15409
G1 X166.876 Y178.872 E26.1935
G1 X166.549 Y178.377 E26.23297
G1 X166.292 Y177.842 E26.27245
G1 X166.109 Y177.278 E26.31189
G1 X166.004 Y176.695 E26.3513
G1 X165.977 Y176.209 E26.38367
G1 X165.976 Y173.677 E26.5521
G1 X166.016 Y173.085 E26.59157
G1 X166.135 Y172.504 E26.63102
G1 X166.331 Y171.945 E26.67043
G1 X166.6 Y171.416 E26.70991
G1 X166.938 Y170.929 E26.74934
G1 X167.265 Y170.564 E26.78194
G1 X167.499 Y170.33 E26.80395
G0 F3600 X168.064 Y170.895
G1 F1200 X168.471 Y170.546 E26.83962
G1 X168.925 Y170.26 E26.87531
G1 X169.416 Y170.045 E26.91096
G1 X169.934 Y169.905 E26.94666
G1 X170.608 Y169.841 E26.99169
G1 X177.877 Y169.837 E27.47523
G1 X177.877 Y167.575 E27.6257
G1 X177.917 Y167.04 E27.66139
G1 X178.036 Y166.517 E27.69707
G1 X178.231 Y166.018 E27.7327
G1 X178.499 Y165.553 E27.76841
G1 X178.931 Y165.029 E27.81358
G1 X179.165 Y164.795 E27.83559
G1 X179.572 Y164.446 E27.87126
G1 X180.026 Y164.16 E27.90695
G1 X180.517 Y163.945 E27.94261
G1 X181.035 Y163.805 E27.9783
G1 X181.71 Y163.741 E28.0234
G1 X184.242 Y163.74 E28.19183
G1 X184.776 Y163.78 E28.22745
G1 X185.299 Y163.898 E28.26312
G1 X185.799 Y164.094 E28.29884
G1 X186.264 Y164.361 E28.33451
G1 X186.684 Y164.694 E28.37017
G1 X187.05 Y165.086 E28.40584
G1 X187.354 Y165.528 E28.44153
G1 X187.588 Y166.01 E28.47717
G1 X187.749 Y166.522 E28.51287
G1 X187.842 Y167.241 E28.5611
G1 X188.076 Y175.757 E29.1278
G1 X188.05 Y176.293 E29.16349
G1 X187.946 Y176.819 E29.19916
G1 X187.799 Y177.244 E29.22907
G1 X187.738 Y177.39 E29.2396
G1 X187.495 Y177.868 E29.27527
G1 X187.183 Y178.305 E29.31099
G1 X186.962 Y178.548 E29.33284
G1 X186.584 Y178.926 E29.3684
G1 X186.177 Y179.275 E29.40406
G1 X185.723 Y179.561 E29.43975
G1 X185.426 Y179.702 E29.46162
G1 X185.28 Y179.763 E29.47215
G1 X184.771 Y179.932 E29.50783
G1 X184.243 Y180.024 E29.54348
G1 X183.892 Y180.041 E29.56685
G1 X170.611 Y180.041 E30.45031
G1 X170.076 Y180.001 E30.486
G1 X169.553 Y179.882 E30.52168
G1 X169.054 Y179.687 E30.55731
G1 X168.589 Y179.419 E30.59302
G1 X168.065 Y178.987 E30.63819
G1 X167.831 Y178.753 E30.6602
G1 X167.482 Y178.346 E30.69587
G1 X167.196 Y177.892 E30.73156
G1 X166.981 Y177.401 E30.76722
G1 X166.841 Y176.883 E30.80291
G1 X166.777 Y176.208 E30.84801
G1 X166.776 Y173.676 E31.01644
G1 X166.816 Y173.142 E31.05206
G1 X166.934 Y172.619 E31.08773
G1 X167.13 Y172.119 E31.12345
G1 X167.397 Y171.654 E31.15912
G1 X167.83 Y171.129 E31.20439
G1 X168.064 Y170.895 E31.2264
G0 F3600 X168.63 Y171.461
G1 F1200 X168.992 Y171.156 E31.25789
G1 X169.399 Y170.916 E31.28932
G1 X169.841 Y170.749 E31.32075
G1 X170.305 Y170.658 E31.35221
G1 X170.609 Y170.641 E31.37246
G1 X178.677 Y170.637 E31.90915
G1 X178.677 Y167.575 E32.11283
G1 X178.717 Y167.104 E32.14427
G1 X178.836 Y166.646 E32.17575
G1 X179.03 Y166.215 E32.20719
G1 X179.293 Y165.822 E32.23865
G1 X179.497 Y165.595 E32.25895
G1 X179.731 Y165.361 E32.28096
G1 X180.093 Y165.056 E32.31245
G1 X180.5 Y164.816 E32.34388
G1 X180.942 Y164.649 E32.37531
G1 X181.406 Y164.558 E32.40677
G1 X181.71 Y164.541 E32.42702
G1 X184.242 Y164.54 E32.59545
G1 X184.713 Y164.58 E32.62689
G1 X185.171 Y164.698 E32.65835
G1 X185.602 Y164.892 E32.6898
G1 X185.995 Y165.156 E32.72129
G1 X186.337 Y165.482 E32.75272
G1 X186.62 Y165.861 E32.78418
G1 X186.835 Y166.282 E32.81563
G1 X186.976 Y166.733 E32.84706
G1 X187.042 Y167.263 E32.88259
G1 X187.276 Y175.779 E33.44929
G1 X187.249 Y176.251 E33.48074
G1 X187.143 Y176.712 E33.5122
G1 X187.061 Y176.935 E33.52801
G1 X187 Y177.081 E33.53854
G1 X186.781 Y177.501 E33.57004
G1 X186.396 Y177.982 E33.61103
G1 X186.018 Y178.36 E33.64659
