;FLAVOR:Marlin
;TIME:1543
;Filament used: 0.999526m
;Layer height: 0.15
;MINX:89.599
;MINY:94.1
;MINZ:0.2
;MAXX:165.3
;MAXY:206.8
;MAXZ:15
;Generated with Cura_SteamEngine 4.2.1
M140 S60
M105
M190 S60
M104 S200
M105
M109 S200
M82 ;absolute extrusion mode
; -- START GCODE --
G21                     ;set units to millimetres
G90                     ;set to absolute positioning
M106 S0                 ;set fan speed to zero (turned off)
G28                     ;home all axis
G92 E0                  ;zero the extruded length
G1 Z1 F1000             ;move up slightly
G1 Y60.0 Z0 E9.0 F1000.0;intro line
G1 Y100.0 E21.5 F1000.0 ;continue line
G92 E0                  ;zero the extruded length again
; -- end of START GCODE --
M141 S28
G92 E0
G92 E0
G1 F2700 E-5
;LAYER_COUNT:66
;LAYER:0
M107
G0 F3600 X138.619 Y189.836 Z0.2
;TYPE:SKIRT
G1 F2700 E0
G1 F1200 X139.267 Y189.384 E0.02628
G1 X139.957 Y189 E0.05254
G1 X140.683 Y188.688 E0.07882
G1 X141.436 Y188.451 E0.10508
G1 X142.209 Y188.291 E0.13134
G1 X142.995 Y188.21 E0.15762
G1 X143.399 Y188.2 E0.17106
G1 X146.893 Y188.2 E0.28727
G1 X147.057 Y187.566 E0.30905
G1 X147.331 Y186.826 E0.33529
G1 X147.679 Y186.117 E0.36156
G1 X148.097 Y185.446 E0.38786
G1 X148.58 Y184.822 E0.4141
G1 X149.123 Y184.249 E0.44036
G1 X149.722 Y183.734 E0.46663
G1 X150.37 Y183.283 E0.49289
G1 X151.061 Y182.899 E0.51918
G1 X151.786 Y182.587 E0.54544
G1 X152.539 Y182.35 E0.57169
G1 X153.313 Y182.191 E0.59797
G1 X154.098 Y182.11 E0.62422
G1 X154.5 Y182.1 E0.6376
G1 X157.5 Y182.1 E0.73738
G1 X158.289 Y182.14 E0.76365
G1 X159.069 Y182.259 E0.7899
G1 X159.834 Y182.457 E0.81618
G1 X160.574 Y182.731 E0.84242
G1 X161.283 Y183.079 E0.86869
G1 X161.954 Y183.497 E0.89499
G1 X162.578 Y183.98 E0.92123
G1 X163.151 Y184.523 E0.94749
G1 X163.666 Y185.122 E0.97376
G1 X164.117 Y185.77 E1.00002
G1 X164.501 Y186.461 E1.02631
G1 X164.813 Y187.186 E1.05256
G1 X165.05 Y187.939 E1.07882
G1 X165.209 Y188.713 E1.1051
G1 X165.29 Y189.498 E1.13135
G1 X165.3 Y189.905 E1.14489
G1 X165.295 Y198.51 E1.43109
G1 X165.255 Y199.298 E1.45734
G1 X165.135 Y200.079 E1.48362
G1 X164.936 Y200.843 E1.50988
G1 X164.662 Y201.584 E1.53615
G1 X164.314 Y202.292 E1.56239
G1 X163.896 Y202.962 E1.58866
G1 X163.412 Y203.587 E1.61495
G1 X163.01 Y204.02 E1.6346
G1 X162.515 Y204.515 E1.65788
G1 X161.929 Y205.045 E1.68416
G1 X161.293 Y205.512 E1.71041
G1 X160.613 Y205.913 E1.73666
G1 X159.895 Y206.243 E1.76295
G1 X159.148 Y206.498 E1.7892
G1 X158.379 Y206.677 E1.81546
G1 X157.595 Y206.777 E1.84175
G1 X157 Y206.8 E1.86155
G1 X143.4 Y206.8 E2.31389
G1 X142.611 Y206.76 E2.34017
G1 X141.831 Y206.641 E2.36641
G1 X141.066 Y206.443 E2.39269
G1 X140.326 Y206.169 E2.41894
G1 X139.617 Y205.821 E2.44521
G1 X138.946 Y205.403 E2.4715
G1 X138.322 Y204.92 E2.49774
G1 X137.749 Y204.377 E2.524
G1 X137.234 Y203.778 E2.55027
G1 X136.783 Y203.13 E2.57653
G1 X136.399 Y202.439 E2.60283
G1 X136.087 Y201.714 E2.62908
G1 X135.85 Y200.961 E2.65533
G1 X135.691 Y200.187 E2.68162
G1 X135.61 Y199.402 E2.70786
G1 X135.6 Y199.003 E2.72114
G1 X135.599 Y196.003 E2.82092
G1 X135.639 Y195.214 E2.84719
G1 X135.758 Y194.433 E2.87347
G1 X135.956 Y193.669 E2.89972
G1 X136.229 Y192.928 E2.92599
G1 X136.577 Y192.219 E2.95225
G1 X136.994 Y191.548 E2.97853
G1 X137.477 Y190.924 E3.00478
G1 X138.021 Y190.351 E3.03106
G1 X138.619 Y189.836 E3.0573
G0 F3600 X139.008 Y190.044
G1 F1200 X139.65 Y189.62 E3.08289
G1 X140.332 Y189.265 E3.10847
G1 X141.048 Y188.983 E3.13406
G1 X141.789 Y188.777 E3.15964
G1 X142.548 Y188.649 E3.18524
G1 X143.399 Y188.6 E3.21359
G1 X147.223 Y188.6 E3.34078
G1 X147.259 Y188.372 E3.34846
G1 X147.457 Y187.629 E3.37403
G1 X147.731 Y186.91 E3.39962
G1 X148.078 Y186.224 E3.42519
G1 X148.494 Y185.577 E3.45078
G1 X148.975 Y184.977 E3.47635
G1 X149.516 Y184.43 E3.50194
G1 X150.111 Y183.942 E3.52754
G1 X150.753 Y183.519 E3.55311
G1 X151.436 Y183.164 E3.57871
G1 X152.151 Y182.883 E3.60426
G1 X152.893 Y182.677 E3.62987
G1 X153.651 Y182.549 E3.65544
G1 X154.5 Y182.5 E3.68373
G1 X157.5 Y182.5 E3.78351
G1 X158.268 Y182.54 E3.80909
G1 X159.028 Y182.659 E3.83467
G1 X159.771 Y182.857 E3.86025
G1 X160.49 Y183.131 E3.88584
G1 X161.176 Y183.478 E3.91141
G1 X161.823 Y183.894 E3.93699
G1 X162.423 Y184.375 E3.96257
G1 X162.97 Y184.916 E3.98816
G1 X163.458 Y185.511 E4.01375
G1 X163.881 Y186.153 E4.03932
G1 X164.236 Y186.836 E4.06492
G1 X164.517 Y187.551 E4.09048
G1 X164.723 Y188.293 E4.11609
G1 X164.851 Y189.051 E4.14166
G1 X164.9 Y189.904 E4.17007
G1 X164.895 Y198.509 E4.45628
G1 X164.855 Y199.277 E4.48186
G1 X164.735 Y200.037 E4.50745
G1 X164.537 Y200.78 E4.53302
G1 X164.262 Y201.499 E4.55862
G1 X163.915 Y202.185 E4.58419
G1 X163.498 Y202.832 E4.6098
G1 X163.017 Y203.431 E4.63535
G1 X162.728 Y203.738 E4.64937
G1 X162.233 Y204.233 E4.67265
G1 X161.661 Y204.747 E4.69823
G1 X161.039 Y205.2 E4.72382
G1 X160.374 Y205.586 E4.7494
G1 X159.672 Y205.901 E4.77499
G1 X158.941 Y206.141 E4.80058
G1 X158.19 Y206.304 E4.82614
G1 X157.425 Y206.388 E4.85174
G1 X157 Y206.4 E4.86588
G1 X143.4 Y206.4 E5.31822
G1 X142.632 Y206.36 E5.34379
G1 X141.872 Y206.241 E5.36938
G1 X141.129 Y206.043 E5.39495
G1 X140.41 Y205.769 E5.42055
G1 X139.724 Y205.422 E5.44612
G1 X139.077 Y205.006 E5.4717
G1 X138.477 Y204.525 E5.49728
G1 X137.93 Y203.984 E5.52286
G1 X137.442 Y203.389 E5.54846
G1 X137.019 Y202.747 E5.57403
G1 X136.664 Y202.064 E5.59963
G1 X136.383 Y201.349 E5.62518
G1 X136.177 Y200.607 E5.6508
G1 X136.049 Y199.849 E5.67636
G1 X136 Y199.002 E5.70458
G1 X135.999 Y196.002 E5.80436
G1 X136.039 Y195.234 E5.82994
G1 X136.158 Y194.474 E5.85553
G1 X136.355 Y193.731 E5.88109
G1 X136.629 Y193.012 E5.90668
G1 X136.976 Y192.326 E5.93225
G1 X137.392 Y191.679 E5.95784
G1 X137.873 Y191.079 E5.98341
G1 X138.413 Y190.532 E6.00898
G1 X139.008 Y190.044 E6.03457
G0 F3600 X139.395 Y190.258
G1 F1200 X140.031 Y189.864 E6.05946
G1 X140.705 Y189.539 E6.08435
G1 X141.41 Y189.289 E6.10922
G1 X142.137 Y189.115 E6.13409
G1 X142.879 Y189.019 E6.15897
G1 X143.399 Y189 E6.17628
G1 X147.565 Y189 E6.31484
G1 X147.659 Y188.415 E6.33455
G1 X147.857 Y187.693 E6.35945
G1 X148.13 Y186.997 E6.38431
G1 X148.477 Y186.334 E6.4092
G1 X148.892 Y185.711 E6.4341
G1 X149.371 Y185.137 E6.45897
G1 X149.908 Y184.616 E6.48385
G1 X150.498 Y184.157 E6.50871
G1 X151.134 Y183.762 E6.53362
G1 X151.808 Y183.438 E6.55849
G1 X152.513 Y183.188 E6.58337
G1 X153.241 Y183.014 E6.60826
G1 X153.983 Y182.919 E6.63314
G1 X154.5 Y182.9 E6.65035
G1 X157.5 Y182.9 E6.75013
G1 X158.247 Y182.94 E6.77501
G1 X158.985 Y183.059 E6.79987
G1 X159.707 Y183.257 E6.82478
G1 X160.403 Y183.53 E6.84964
G1 X161.066 Y183.877 E6.87453
G1 X161.689 Y184.292 E6.89943
G1 X162.263 Y184.771 E6.92429
G1 X162.784 Y185.308 E6.94918
G1 X163.243 Y185.898 E6.97404
G1 X163.638 Y186.534 E6.99894
G1 X163.962 Y187.208 E7.02382
G1 X164.212 Y187.913 E7.04869
G1 X164.386 Y188.641 E7.07359
G1 X164.481 Y189.383 E7.09847
G1 X164.5 Y189.904 E7.11581
G1 X164.495 Y198.509 E7.40201
G1 X164.455 Y199.256 E7.42689
G1 X164.335 Y199.994 E7.45176
G1 X164.137 Y200.716 E7.47666
G1 X163.863 Y201.412 E7.50154
G1 X163.516 Y202.075 E7.52643
G1 X163.101 Y202.697 E7.5513
G1 X162.445 Y203.455 E7.58464
G1 X161.95 Y203.95 E7.60793
G1 X161.393 Y204.45 E7.63282
G1 X160.787 Y204.887 E7.65767
G1 X160.137 Y205.258 E7.68256
G1 X159.451 Y205.557 E7.70745
G1 X158.737 Y205.781 E7.73234
G1 X158.004 Y205.928 E7.75721
G1 X157 Y206 E7.79069
G1 X143.4 Y206 E8.24302
G1 X142.653 Y205.96 E8.2679
G1 X141.915 Y205.841 E8.29277
G1 X141.193 Y205.643 E8.31767
G1 X140.497 Y205.37 E8.34253
G1 X139.834 Y205.023 E8.36742
G1 X139.211 Y204.608 E8.39232
G1 X138.637 Y204.129 E8.41719
G1 X138.116 Y203.592 E8.44207
G1 X137.657 Y203.002 E8.46693
G1 X137.262 Y202.366 E8.49184
G1 X136.938 Y201.692 E8.51671
G1 X136.688 Y200.987 E8.54159
G1 X136.514 Y200.259 E8.56648
G1 X136.419 Y199.517 E8.59136
G1 X136.4 Y199.002 E8.6085
G1 X136.399 Y196.002 E8.70828
G1 X136.439 Y195.255 E8.73317
G1 X136.558 Y194.517 E8.75803
G1 X136.755 Y193.795 E8.78292
G1 X137.028 Y193.099 E8.80779
G1 X137.374 Y192.436 E8.83266
G1 X137.789 Y191.813 E8.85756
G1 X138.268 Y191.238 E8.88245
G1 X138.805 Y190.718 E8.90731
G1 X139.395 Y190.258 E8.93219
G0 F3600 X139.197 Y190.911
G1 F1200 X139.781 Y190.48 E8.95633
G1 X140.41 Y190.116 E8.98051
G1 X141.075 Y189.823 E9.00468
G1 X141.767 Y189.605 E9.02881
G1 X142.48 Y189.464 E9.05298
G1 X143.399 Y189.4 E9.08362
G1 X147.928 Y189.4 E9.23426
G1 X147.94 Y189.175 E9.24175
G1 X148.059 Y188.458 E9.26592
G1 X148.257 Y187.759 E9.29009
G1 X148.53 Y187.086 E9.31424
G1 X148.875 Y186.447 E9.3384
G1 X149.289 Y185.85 E9.36256
G1 X149.765 Y185.302 E9.3867
G1 X150.299 Y184.809 E9.41087
G1 X150.884 Y184.379 E9.43502
G1 X151.513 Y184.015 E9.45919
G1 X152.178 Y183.722 E9.48336
G1 X152.871 Y183.504 E9.50753
G1 X153.583 Y183.364 E9.53166
G1 X154.5 Y183.3 E9.56223
G1 X157.5 Y183.3 E9.66201
G1 X158.225 Y183.34 E9.68616
G1 X158.942 Y183.459 E9.71034
G1 X159.641 Y183.657 E9.7345
G1 X160.314 Y183.93 E9.75866
G1 X160.953 Y184.275 E9.78281
G1 X161.55 Y184.689 E9.80697
G1 X162.098 Y185.165 E9.83112
G1 X162.591 Y185.699 E9.85529
G1 X163.021 Y186.284 E9.87944
G1 X163.385 Y186.913 E9.90361
G1 X163.678 Y187.578 E9.92778
G1 X163.896 Y188.271 E9.95194
G1 X164.036 Y188.983 E9.97608
G1 X164.1 Y189.904 E10.00678
G1 X164.095 Y198.509 E10.29299
G1 X164.055 Y199.234 E10.31714
G1 X163.935 Y199.95 E10.34128
G1 X163.737 Y200.649 E10.36545
G1 X163.463 Y201.322 E10.38961
G1 X163.118 Y201.961 E10.41377
G1 X162.704 Y202.558 E10.43793
G1 X162.162 Y203.172 E10.46517
G1 X161.667 Y203.667 E10.48845
G1 X161.126 Y204.151 E10.5126
G1 X160.535 Y204.574 E10.53677
G1 X159.901 Y204.928 E10.56092
G1 X159.232 Y205.211 E10.58508
G1 X158.536 Y205.419 E10.60924
G1 X157.821 Y205.549 E10.63341
G1 X157 Y205.6 E10.66077
G1 X143.4 Y205.6 E11.11311
G1 X142.675 Y205.56 E11.13726
G1 X141.958 Y205.441 E11.16143
G1 X141.259 Y205.243 E11.1856
G1 X140.586 Y204.97 E11.20975
G1 X139.947 Y204.625 E11.23391
G1 X139.35 Y204.211 E11.25807
G1 X138.802 Y203.735 E11.28221
G1 X138.309 Y203.201 E11.30639
G1 X137.879 Y202.616 E11.33053
G1 X137.515 Y201.987 E11.3547
G1 X137.222 Y201.322 E11.37887
G1 X137.004 Y200.629 E11.40304
G1 X136.864 Y199.917 E11.42717
G1 X136.8 Y199.002 E11.45768
G1 X136.799 Y196.002 E11.55746
G1 X136.839 Y195.277 E11.58161
G1 X136.958 Y194.56 E11.60578
G1 X137.155 Y193.861 E11.62994
G1 X137.428 Y193.188 E11.65409
G1 X137.773 Y192.549 E11.67825
G1 X138.186 Y191.952 E11.70239
G1 X138.663 Y191.403 E11.72658
G1 X139.197 Y190.911 E11.75073
G0 F3600 X139.587 Y191.111
G1 F1200 X140.165 Y190.71 E11.77413
G1 X140.786 Y190.378 E11.79755
G1 X141.44 Y190.118 E11.82096
G1 X142.12 Y189.933 E11.8444
G1 X142.816 Y189.828 E11.86781
G1 X143.399 Y189.8 E11.88722
G1 X148.306 Y189.8 E12.05043
G1 X148.34 Y189.197 E12.07052
G1 X148.459 Y188.503 E12.09394
G1 X148.657 Y187.828 E12.11733
G1 X148.929 Y187.179 E12.14074
G1 X149.274 Y186.565 E12.16416
G1 X149.685 Y185.994 E12.18756
G1 X150.159 Y185.473 E12.21099
G1 X150.689 Y185.009 E12.23442
G1 X151.268 Y184.609 E12.25782
G1 X151.889 Y184.277 E12.28124
G1 X152.543 Y184.017 E12.30465
G1 X153.223 Y183.833 E12.32808
G1 X153.919 Y183.727 E12.3515
G1 X154.5 Y183.7 E12.37084
G1 X157.5 Y183.7 E12.47062
G1 X158.203 Y183.74 E12.49404
G1 X158.897 Y183.859 E12.51746
G1 X159.572 Y184.057 E12.54086
G1 X160.221 Y184.329 E12.56426
G1 X160.835 Y184.674 E12.58769
G1 X161.406 Y185.085 E12.61109
G1 X161.927 Y185.559 E12.63452
G1 X162.391 Y186.089 E12.65794
G1 X162.791 Y186.668 E12.68135
G1 X163.123 Y187.289 E12.70477
G1 X163.383 Y187.943 E12.72818
G1 X163.567 Y188.623 E12.75161
G1 X163.673 Y189.319 E12.77503
G1 X163.7 Y189.904 E12.7945
G1 X163.695 Y198.509 E13.08071
G1 X163.655 Y199.211 E13.10409
G1 X163.535 Y199.905 E13.12752
G1 X163.337 Y200.581 E13.15095
G1 X163.064 Y201.23 E13.17437
G1 X162.719 Y201.844 E13.19779
G1 X162.307 Y202.414 E13.22118
G1 X161.879 Y202.889 E13.24245
G1 X161.384 Y203.384 E13.26573
G1 X160.859 Y203.853 E13.28915
G1 X160.284 Y204.259 E13.31256
G1 X159.666 Y204.597 E13.33599
G1 X159.015 Y204.864 E13.35939
G1 X158.337 Y205.054 E13.38281
G1 X157.642 Y205.167 E13.40623
G1 X157 Y205.2 E13.42761
G1 X143.4 Y205.2 E13.87995
G1 X142.697 Y205.16 E13.90337
G1 X142.003 Y205.041 E13.92678
G1 X141.328 Y204.843 E13.95018
G1 X140.679 Y204.571 E13.97359
G1 X140.065 Y204.226 E13.99701
G1 X139.494 Y203.815 E14.02041
G1 X138.973 Y203.341 E14.04384
G1 X138.509 Y202.811 E14.06727
G1 X138.109 Y202.232 E14.09067
G1 X137.777 Y201.611 E14.11409
G1 X137.517 Y200.957 E14.1375
G1 X137.333 Y200.277 E14.16093
G1 X137.227 Y199.581 E14.18435
G1 X137.2 Y199.002 E14.20363
G1 X137.199 Y196.002 E14.30341
G1 X137.239 Y195.299 E14.32683
G1 X137.358 Y194.605 E14.35025
G1 X137.555 Y193.93 E14.37363
G1 X137.827 Y193.28 E14.39707
G1 X138.172 Y192.666 E14.42049
G1 X138.583 Y192.095 E14.44389
G1 X139.057 Y191.574 E14.46732
G1 X139.587 Y191.111 E14.49073
G0 F3600 X139.975 Y191.318
G1 F1200 X140.547 Y190.949 E14.51337
G1 X141.159 Y190.65 E14.53602
G1 X141.801 Y190.424 E14.55866
G1 X142.466 Y190.276 E14.58132
G1 X143.399 Y190.2 E14.61245
G1 X148.7 Y190.2 E14.78876
G1 X148.7 Y189.9 E14.79874
G1 X148.74 Y189.22 E14.8214
G1 X148.859 Y188.55 E14.84403
G1 X149.056 Y187.898 E14.86669
G1 X149.328 Y187.274 E14.88933
G1 X149.672 Y186.686 E14.91198
G1 X150.082 Y186.142 E14.93464
G1 X150.553 Y185.651 E14.95727
G1 X151.078 Y185.217 E14.97993
G1 X151.65 Y184.848 E15.00257
G1 X152.262 Y184.549 E15.02522
G1 X152.904 Y184.324 E15.04785
G1 X153.569 Y184.175 E15.07051
G1 X154.5 Y184.1 E15.10158
G1 X157.5 Y184.1 E15.20136
G1 X158.18 Y184.14 E15.22402
G1 X158.85 Y184.259 E15.24665
G1 X159.502 Y184.456 E15.2693
G1 X160.126 Y184.728 E15.29194
G1 X160.714 Y185.072 E15.3146
G1 X161.258 Y185.482 E15.33726
G1 X161.749 Y185.953 E15.35989
G1 X162.183 Y186.478 E15.38254
G1 X162.552 Y187.05 E15.40518
G1 X162.851 Y187.662 E15.42784
G1 X163.076 Y188.304 E15.45046
G1 X163.225 Y188.969 E15.47313
G1 X163.3 Y189.903 E15.5043
G1 X163.295 Y198.508 E15.7905
G1 X163.255 Y199.188 E15.81315
G1 X163.135 Y199.858 E15.83579
G1 X162.937 Y200.51 E15.85846
G1 X162.665 Y201.134 E15.8811
G1 X162.321 Y201.722 E15.90376
G1 X161.911 Y202.265 E15.92639
G1 X161.596 Y202.606 E15.94183
G1 X161.101 Y203.101 E15.96511
G1 X160.592 Y203.554 E15.98777
G1 X160.034 Y203.943 E16.0104
G1 X159.434 Y204.265 E16.03304
G1 X158.8 Y204.514 E16.0557
G1 X158.141 Y204.687 E16.07836
G1 X157.467 Y204.781 E16.10099
G1 X157 Y204.8 E16.11654
G1 X143.4 Y204.8 E16.56888
G1 X142.72 Y204.76 E16.59153
G1 X142.05 Y204.641 E16.61417
G1 X141.398 Y204.444 E16.63682
G1 X140.774 Y204.172 E16.65946
G1 X140.186 Y203.828 E16.68212
G1 X139.642 Y203.418 E16.70478
G1 X139.151 Y202.947 E16.72741
G1 X138.717 Y202.422 E16.75006
G1 X138.348 Y201.85 E16.7727
G1 X138.049 Y201.238 E16.79536
G1 X137.824 Y200.596 E16.81798
G1 X137.675 Y199.931 E16.84065
G1 X137.6 Y199.002 E16.87165
G1 X137.599 Y196.002 E16.97143
G1 X137.639 Y195.322 E16.99408
G1 X137.758 Y194.652 E17.01672
G1 X137.955 Y194 E17.03937
G1 X138.227 Y193.376 E17.06201
G1 X138.57 Y192.788 E17.08465
G1 X138.98 Y192.244 E17.10731
G1 X139.45 Y191.752 E17.12994
G1 X139.975 Y191.318 E17.1526
G0 F3600 X139.842 Y191.937
G1 F1200 X140.362 Y191.535 E17.17446
G1 X140.927 Y191.199 E17.19632
G1 X141.528 Y190.934 E17.21817
G1 X142.157 Y190.745 E17.24001
G1 X142.805 Y190.633 E17.26188
G1 X143.399 Y190.6 E17.28167
G1 X149.1 Y190.6 E17.47129
G1 X149.1 Y189.9 E17.49457
G1 X149.14 Y189.244 E17.51643
G1 X149.259 Y188.598 E17.53828
G1 X149.456 Y187.971 E17.56013
G1 X149.728 Y187.373 E17.58198
G1 X150.07 Y186.812 E17.60384
G1 X150.478 Y186.297 E17.62569
G1 X150.945 Y185.835 E17.64754
G1 X151.465 Y185.434 E17.66938
G1 X152.029 Y185.098 E17.69122
G1 X152.631 Y184.834 E17.71308
G1 X153.26 Y184.644 E17.73493
G1 X153.907 Y184.533 E17.75677
G1 X154.5 Y184.5 E17.77652
G1 X157.5 Y184.5 E17.8763
G1 X158.156 Y184.54 E17.89816
G1 X158.802 Y184.659 E17.92001
G1 X159.429 Y184.856 E17.94187
G1 X160.027 Y185.128 E17.96372
G1 X160.588 Y185.47 E17.98557
G1 X161.103 Y185.878 E18.00742
G1 X161.565 Y186.345 E18.02927
G1 X161.966 Y186.865 E18.05111
G1 X162.302 Y187.429 E18.07295
G1 X162.566 Y188.031 E18.09481
